public/art/floors/lava.svg

<svg xmlns="http://www.w3.org/2000/svg" width="32" height="32" shape-rendering="crispEdges" viewBox="0 -0.5 16 16"><path stroke="#E56C00" d="M0 0h2m6 0h4m3 0h1M0 1h1m6 0h3m4 0h2M6 2h3m3 0h1m1 0h2M3 3h2m1 0h2m4 0h2M2 4h4m5 0h2M1 5h1m1 0h2m5 0h2M1 6h2m6 0h1m1 0h1M0 7h4m5 0h2M0 8h2m6 0h4m3 0h1M0 9h1m6 0h3m4 0h2M6 10h3m3 0h1m1 0h2M3 11h2m1 0h2m4 0h2M2 12h4m5 0h2M1 13h1m1 0h2m5 0h2M1 14h2m6 0h1m1 0h1M0 15h4m5 0h2"/><path stroke="#FF9C6D" d="M2 0h3M1 1h1m2 0h1m5 0h2M0 2h1m4 0h1m3 0h1m3 0h1M1 3h1m3 0h1m2 0h1m5 0h2M1 4h1m5 0h1m1 0h1m3 0h1M2 5h1m6 0h1m2 0h1M3 6h1m6 0h1m0 1h1M2 8h3M1 9h1m2 0h1m5 0h1m2 0h1M0 10h1m4 0h1m3 0h1m3 0h1M1 11h1m3 0h1m2 0h1m5 0h2M1 12h1m5 0h1m1 0h1m3 0h1M2 13h1m6 0h1m2 0h1M3 14h1m6 0h1m0 1h2"/><path stroke="#FF9232" d="M5 0h3m5 0h2M5 1h2m5 0h1M2 2h3M2 3h1m7 0h2m-2 1h1M0 5h1m13 0h2M0 6h1m5 0h3m4 0h3M5 7h4m4 0h3M5 8h3m5 0h2M5 9h2m5 0h1M2 10h3m-3 1h1m7 0h2m-2 1h1M0 13h1m13 0h2M0 14h1m5 0h3m4 0h3M5 15h4m4 0h3"/><path stroke="#FFCB7D" d="M12 0h1m0 1h1M6 4h1M5 5h1M4 6h1m7 1h1m-1 1h1m-2 1h1m-6 3h1m-2 1h1m-2 1h1"/><path stroke="#FFCD65" d="M2 1h2M1 2h1m8 0h2M0 3h1m8 0h1M0 4h1m7 0h1m5 0h2M6 5h3m4 0h1M5 6h1m6 0h1M4 7h1M2 9h2m-3 1h1m8 0h2M0 11h1m8 0h1M0 12h1m7 0h1m5 0h2M6 13h3m4 0h1m-9 1h1m6 0h1m-9 1h1"/></svg>

<svg xmlns="http://www.w3.org/2000/svg" width="32" height="32" viewBox="0 -0.5 16 16" shape-rendering="crispEdges">
<path stroke="#E56C00" d="M0 0h2M8 0h4M15 0h1M0 1h1M7 1h3M14 1h2M6 2h3M12 2h1M14 2h2M3 3h2M6 3h2M12 3h2M2 4h4M11 4h2M1 5h1M3 5h2M10 5h2M1 6h2M9 6h1M11 6h1M0 7h4M9 7h2M0 8h2M8 8h4M15 8h1M0 9h1M7 9h3M14 9h2M6 10h3M12 10h1M14 10h2M3 11h2M6 11h2M12 11h2M2 12h4M11 12h2M1 13h1M3 13h2M10 13h2M1 14h2M9 14h1M11 14h1M0 15h4M9 15h2" />
<path stroke="#FF9C6D" d="M2 0h3M1 1h1M4 1h1M10 1h2M0 2h1M5 2h1M9 2h1M13 2h1M1 3h1M5 3h1M8 3h1M14 3h2M1 4h1M7 4h1M9 4h1M13 4h1M2 5h1M9 5h1M12 5h1M3 6h1M10 6h1M11 7h1M2 8h3M1 9h1M4 9h1M10 9h1M13 9h1M0 10h1M5 10h1M9 10h1M13 10h1M1 11h1M5 11h1M8 11h1M14 11h2M1 12h1M7 12h1M9 12h1M13 12h1M2 13h1M9 13h1M12 13h1M3 14h1M10 14h1M11 15h2" />
<path stroke="#FF9232" d="M5 0h3M13 0h2M5 1h2M12 1h1M2 2h3M2 3h1M10 3h2M10 4h1M0 5h1M14 5h2M0 6h1M6 6h3M13 6h3M5 7h4M13 7h3M5 8h3M13 8h2M5 9h2M12 9h1M2 10h3M2 11h1M10 11h2M10 12h1M0 13h1M14 13h2M0 14h1M6 14h3M13 14h3M5 15h4M13 15h3" />
<path stroke="#FFCB7D" d="M12 0h1M13 1h1M6 4h1M5 5h1M4 6h1M12 7h1M12 8h1M11 9h1M6 12h1M5 13h1M4 14h1" />
<path stroke="#FFCD65" d="M2 1h2M1 2h1M10 2h2M0 3h1M9 3h1M0 4h1M8 4h1M14 4h2M6 5h3M13 5h1M5 6h1M12 6h1M4 7h1M2 9h2M1 10h1M10 10h2M0 11h1M9 11h1M0 12h1M8 12h1M14 12h2M6 13h3M13 13h1M5 14h1M12 14h1M4 15h1" />
</svg>
